; generated by PrusaSlicer 2.9.1 on 2025-03-26 at 16:56:34 UTC

; 

; external perimeters extrusion width = 0.45mm
; perimeters extrusion width = 0.45mm
; infill extrusion width = 0.45mm
; solid infill extrusion width = 0.45mm
; top infill extrusion width = 0.40mm
; support material extrusion width = 0.45mm
; first layer extrusion width = 0.50mm

M73 P0 R84
M190 S60 ; set bed temperature and wait for it to be reached
;TYPE:Custom
;G28 ; home all axes
;G1 Z5 F5000 ; lift nozzle
M109 S215
G28 ;home
G92 E0 ;Reset Extruder
G1 Z4.0 F3000 ;Move Z Axis up
G92 E0 ;Reset Extruder
G1 X3.1 Y20 Z0.28 F5000.0 ;Move to start position
G1 X3.1 Y80.0 Z0.28 F1500.0 E10 ;Draw the first line
G1 X3.4 Y80.0 Z0.28 F5000.0 ;Move to side a little
G1 X3.4 Y20 Z0.28 F1500.0 E20 ;Draw the second line
G92 E0 ;Reset Extruder
G1 Z2.0 F3000 ;Move Z Axis up
G21 ; set units to millimeters
G90 ; use absolute coordinates
M82 ; use absolute distances for extrusion
G92 E0
; Filament gcode
M107
;LAYER_CHANGE
;Z:0.28
;HEIGHT:0.28
G1 E-2 F2400
G92 E0
G1 Z2.28 F15000
G1 X40.127 Y69.107
G1 Z.28
G1 E2 F2400
;TYPE:Skirt/Brim
;WIDTH:0.5
G1 F3600
G1 X43.005 Y68.284 E2.15329
G1 X143.397 Y64.724 E7.29763
G1 X196.038 Y64.72 E9.99339
G1 X198.224 Y65.117 E10.10717
G1 X200.131 Y66.257 E10.22095
G1 X201.515 Y67.994 E10.33469
G1 X202.257 Y70.94 E10.49027
G1 X202.257 Y164.06 E15.25897
G1 X201.861 Y166.246 E15.37274
G1 X200.721 Y168.153 E15.48652
G1 X198.984 Y169.538 E15.60029
G1 X196.038 Y170.28 E15.75587
G1 X143.397 Y170.276 E18.45163
G1 X43.005 Y166.716 E23.59597
G1 X40.834 Y166.242 E23.70977
G1 X38.429 Y164.461 E23.86302
G1 X34.167 Y159.299 E24.20583
G1 X33.081 Y157.361 E24.3196
G1 X32.743 Y155.338 E24.42463
G1 X32.743 Y79.662 E28.30002
G1 X33.139 Y77.476 E28.41379
G1 X34.166 Y75.701 E28.51881
G1 X38.429 Y70.539 E28.86165
G1 X40.081 Y69.145 E28.97234
G1 E26.97234 F2400
G92 E0
G1 Z2.28 F15000
G92 E0
G1 X196.038 Y164.06
G1 Z.28
G1 E2 F2400
;TYPE:Support material
G1 F3600
G1 X143.617 Y164.06 E4.6845
G1 X143.617 Y160.975 E4.84248
M73 P0 R83
G1 X146.972 Y160.975 E5.01429
G1 X147.25 Y160.697 E5.03442
G1 X147.25 Y155.246 E5.31357
G1 X187.224 Y155.246 E7.36065
G1 X187.224 Y114.639 E9.44015
G1 X175.595 Y114.639 E10.03567
G1 X175.595 Y100.011 E10.78477
G1 X187.224 Y100.011 E11.38029
G1 X187.224 Y94.29 E11.67326
G1 X175.595 Y94.29 E12.26878
G1 X175.595 Y79.754 E13.01317
G1 X147.25 Y79.754 E14.46473
G1 X147.25 Y74.303 E14.74388
G1 X146.972 Y74.025 E14.76401
G1 X143.617 Y74.025 E14.93582
G1 X143.617 Y70.94 E15.0938
G1 X196.038 Y70.94 E17.7783
G1 X196.038 Y163.994 E22.54362
G1 X195.218 Y163.862 F15000
G1 F3600
G1 X195.218 Y71.336 E27.2819
G1 X194.729 Y71.336 E27.30694
G1 X194.729 Y163.664 E32.03509
G1 X194.24 Y163.664 E32.06013
G1 X194.24 Y71.336 E36.78828
G1 X193.751 Y71.336 E36.81332
G1 X193.751 Y163.664 E41.54147
G1 X193.262 Y163.664 E41.56651
G1 X193.262 Y71.336 E46.29466
G1 X192.774 Y71.336 E46.31965
G1 X192.774 Y163.664 E51.0478
G1 X192.285 Y163.664 E51.07284
G1 X192.285 Y71.336 E55.80099
G1 X191.796 Y71.336 E55.82603
G1 X191.796 Y163.664 E60.55418
G1 X191.307 Y163.664 E60.57922
G1 X191.307 Y71.336 E65.30737
G1 X190.819 Y71.336 E65.33236
G1 X190.818 Y163.664 E70.06051
G1 X190.33 Y163.664 E70.0855
G1 X190.33 Y71.336 E74.81365
G1 X189.841 Y71.336 E74.83869
G1 X189.841 Y163.664 E79.56684
G1 X189.352 Y163.664 E79.59188
G1 X189.352 Y71.336 E84.32003
G1 X188.863 Y71.336 E84.34507
G1 X188.863 Y163.664 E89.07322
G1 X188.375 Y163.664 E89.09821
G1 X188.375 Y71.336 E93.82636
G1 X187.886 Y71.336 E93.8514
G1 X187.886 Y163.664 E98.57955
G1 X187.397 Y163.664 E98.60459
G1 X187.397 Y155.642 E99.0154
G1 X186.908 Y155.642 E99.04044
G1 X186.908 Y163.664 E99.45125
G1 X186.419 Y163.664 E99.47629
G1 X186.419 Y155.642 E99.8871
G1 X185.931 Y155.642 E99.91209
G1 X185.931 Y163.664 E100.3229
G1 X185.442 Y163.664 E100.34794
G1 X185.442 Y155.642 E100.75875
G1 X184.953 Y155.642 E100.78379
G1 X184.953 Y163.664 E101.1946
G1 X184.464 Y163.664 E101.21964
G1 X184.464 Y155.642 E101.63045
G1 X183.975 Y155.642 E101.65549
G1 X183.975 Y163.664 E102.0663
G1 X183.487 Y163.664 E102.09129
G1 X183.487 Y155.642 E102.5021
G1 X182.998 Y155.642 E102.52714
G1 X182.998 Y163.664 E102.93795
G1 X182.509 Y163.664 E102.96299
G1 X182.509 Y155.642 E103.3738
G1 X182.02 Y155.642 E103.39884
G1 X182.02 Y163.664 E103.80965
G1 X181.531 Y163.664 E103.83469
G1 X181.531 Y155.642 E104.2455
G1 X181.043 Y155.642 E104.27049
G1 X181.043 Y163.664 E104.6813
G1 X180.554 Y163.664 E104.70634
G1 X180.554 Y155.642 E105.11715
G1 X180.065 Y155.642 E105.14219
G1 X180.065 Y163.664 E105.553
G1 X179.576 Y163.664 E105.57804
G1 X179.576 Y155.642 E105.98885
G1 X179.088 Y155.642 E106.01384
M73 P1 R83
G1 X179.088 Y163.664 E106.42465
G1 X178.599 Y163.664 E106.44969
G1 X178.599 Y155.642 E106.8605
G1 X178.11 Y155.642 E106.88554
G1 X178.11 Y163.664 E107.29635
G1 X177.621 Y163.664 E107.32139
G1 X177.621 Y155.642 E107.7322
G1 X177.132 Y155.642 E107.75724
G1 X177.132 Y163.664 E108.16805
G1 X176.644 Y163.664 E108.19304
G1 X176.644 Y155.642 E108.60385
G1 X176.155 Y155.642 E108.62889
G1 X176.155 Y163.664 E109.0397
G1 X175.666 Y163.664 E109.06474
G1 X175.666 Y155.642 E109.47555
G1 X175.177 Y155.642 E109.50059
G1 X175.177 Y163.664 E109.9114
G1 X174.688 Y163.664 E109.93644
G1 X174.688 Y155.642 E110.34725
G1 X174.2 Y155.642 E110.37224
G1 X174.2 Y163.664 E110.78305
G1 X173.711 Y163.664 E110.80809
G1 X173.711 Y155.642 E111.2189
G1 X173.222 Y155.642 E111.24394
G1 X173.222 Y163.664 E111.65475
G1 X172.733 Y163.664 E111.67979
G1 X172.733 Y155.642 E112.0906
G1 X172.244 Y155.642 E112.11564
G1 X172.244 Y163.664 E112.52645
G1 X171.756 Y163.664 E112.55144
G1 X171.756 Y155.642 E112.96225
G1 X171.267 Y155.642 E112.98729
G1 X171.267 Y163.664 E113.3981
G1 X170.778 Y163.664 E113.42314
G1 X170.778 Y155.642 E113.83395
G1 X170.289 Y155.642 E113.85899
G1 X170.289 Y163.664 E114.2698
G1 X169.801 Y163.664 E114.29479
G1 X169.801 Y155.642 E114.7056
G1 X169.312 Y155.642 E114.73064
G1 X169.312 Y163.664 E115.14145
G1 X168.823 Y163.664 E115.16649
G1 X168.823 Y155.642 E115.5773
G1 X168.334 Y155.642 E115.60234
G1 X168.334 Y163.664 E116.01315
G1 X167.845 Y163.664 E116.03819
G1 X167.845 Y155.642 E116.449
G1 X167.357 Y155.642 E116.47399
G1 X167.357 Y163.664 E116.8848
G1 X166.868 Y163.664 E116.90984
G1 X166.868 Y155.642 E117.32065
G1 X166.379 Y155.642 E117.34569
G1 X166.379 Y163.664 E117.7565
G1 X165.89 Y163.664 E117.78154
G1 X165.89 Y155.642 E118.19235
G1 X165.401 Y155.642 E118.21739
G1 X165.401 Y163.664 E118.6282
G1 X164.913 Y163.664 E118.65319
G1 X164.913 Y155.642 E119.064
G1 X164.424 Y155.642 E119.08904
G1 X164.424 Y163.664 E119.49985
G1 X163.935 Y163.664 E119.52489
G1 X163.935 Y155.642 E119.9357
G1 X163.446 Y155.642 E119.96074
G1 X163.446 Y163.664 E120.37155
G1 X162.957 Y163.664 E120.39659
G1 X162.957 Y155.642 E120.8074
G1 X162.469 Y155.642 E120.83239
G1 X162.469 Y163.664 E121.2432
G1 X161.98 Y163.664 E121.26824
G1 X161.98 Y155.642 E121.67905
G1 X161.491 Y155.642 E121.70409
G1 X161.491 Y163.664 E122.1149
G1 X161.002 Y163.664 E122.13994
G1 X161.002 Y155.642 E122.55075
G1 X160.514 Y155.642 E122.57574
G1 X160.514 Y163.664 E122.98655
G1 X160.025 Y163.664 E123.01159
G1 X160.025 Y155.642 E123.4224
G1 X159.536 Y155.642 E123.44744
G1 X159.536 Y163.664 E123.85825
G1 X159.047 Y163.664 E123.88329
G1 X159.047 Y155.642 E124.2941
G1 X158.558 Y155.642 E124.31914
G1 X158.558 Y163.664 E124.72995
G1 X158.07 Y163.664 E124.75494
G1 X158.07 Y155.642 E125.16575
G1 X157.581 Y155.642 E125.19079
G1 X157.581 Y163.664 E125.6016
G1 X157.092 Y163.664 E125.62664
G1 X157.092 Y155.642 E126.03745
G1 X156.603 Y155.642 E126.06249
G1 X156.603 Y163.664 E126.4733
G1 X156.114 Y163.664 E126.49834
G1 X156.114 Y155.642 E126.90915
G1 X155.626 Y155.642 E126.93414
G1 X155.626 Y163.664 E127.34495
G1 X155.137 Y163.664 E127.36999
G1 X155.137 Y155.642 E127.7808
G1 X154.648 Y155.642 E127.80584
G1 X154.648 Y163.664 E128.21665
G1 X154.159 Y163.664 E128.24169
G1 X154.159 Y155.642 E128.6525
G1 X153.67 Y155.642 E128.67754
G1 X153.67 Y163.664 E129.08835
G1 X153.182 Y163.664 E129.11334
G1 X153.182 Y155.642 E129.52415
G1 X152.693 Y155.642 E129.54919
G1 X152.693 Y163.664 E129.96
G1 X152.204 Y163.664 E129.98504
G1 X152.204 Y155.642 E130.39585
G1 X151.715 Y155.642 E130.42089
G1 X151.715 Y163.664 E130.8317
G1 X151.227 Y163.664 E130.85669
G1 X151.227 Y155.642 E131.2675
G1 X150.738 Y155.642 E131.29254
G1 X150.738 Y163.664 E131.70335
G1 X150.249 Y163.664 E131.72839
G1 X150.249 Y155.642 E132.1392
G1 X149.76 Y155.642 E132.16424
G1 X149.76 Y163.664 E132.57505
G1 X149.271 Y163.664 E132.60009
G1 X149.271 Y155.642 E133.0109
G1 X148.783 Y155.642 E133.03589
G1 X148.783 Y163.664 E133.4467
G1 X148.294 Y163.664 E133.47174
G1 X148.294 Y155.642 E133.88255
G1 X147.805 Y155.642 E133.90759
G1 X147.805 Y163.664 E134.3184
G1 X147.316 Y163.664 E134.34344
G1 X147.316 Y161.19 E134.47013
G1 X147.136 Y161.371 E134.4832
G1 X146.827 Y161.371 E134.49902
G1 X146.827 Y163.664 E134.61645
G1 X146.339 Y163.664 E134.64144
G1 X146.339 Y161.371 E134.75887
G1 X145.85 Y161.371 E134.78391
G1 X145.85 Y163.664 E134.90134
G1 X145.361 Y163.664 E134.92638
G1 X145.361 Y161.371 E135.04381
G1 X144.872 Y161.371 E135.06885
G1 X144.872 Y163.664 E135.18628
G1 X144.383 Y163.664 E135.21132
G1 X144.383 Y161.173 E135.33888
G1 E133.33888 F2400
G92 E0
G1 Z2.28 F15000
G1 X187.397 Y114.441
G1 Z.28
G1 E2 F2400
G1 F3600
G1 X187.397 Y100.407 E2.71869
G1 X186.908 Y100.407 E2.74373
G1 X186.908 Y114.243 E3.45228
G1 X186.419 Y114.243 E3.47732
G1 X186.419 Y100.407 E4.18587
G1 X185.931 Y100.407 E4.21086
G1 X185.931 Y114.243 E4.91941
G1 X185.442 Y114.243 E4.94445
G1 X185.442 Y100.407 E5.653
G1 X184.953 Y100.407 E5.67804
G1 X184.953 Y114.243 E6.38659
G1 X184.464 Y114.243 E6.41163
G1 X184.464 Y100.407 E7.12018
G1 X183.975 Y100.407 E7.14522
G1 X183.975 Y114.243 E7.85377
G1 X183.487 Y114.243 E7.87876
G1 X183.487 Y100.407 E8.58731
G1 X182.998 Y100.407 E8.61235
G1 X182.998 Y114.243 E9.3209
G1 X182.509 Y114.243 E9.34594
G1 X182.509 Y100.407 E10.05449
G1 X182.02 Y100.407 E10.07953
G1 X182.02 Y114.243 E10.78808
G1 X181.531 Y114.243 E10.81312
G1 X181.531 Y100.407 E11.52167
G1 X181.043 Y100.407 E11.54666
G1 X181.043 Y114.243 E12.25521
G1 X180.554 Y114.243 E12.28025
G1 X180.554 Y100.407 E12.9888
G1 X180.065 Y100.407 E13.01384
G1 X180.065 Y114.243 E13.72239
G1 X179.576 Y114.243 E13.74743
G1 X179.576 Y100.407 E14.45598
G1 X179.088 Y100.407 E14.48097
G1 X179.088 Y114.243 E15.18952
G1 X178.599 Y114.243 E15.21456
G1 X178.599 Y100.407 E15.92311
G1 X178.11 Y100.407 E15.94815
G1 X178.11 Y114.243 E16.6567
G1 X177.621 Y114.243 E16.68174
G1 X177.621 Y100.407 E17.39029
G1 X177.132 Y100.407 E17.41533
G1 X177.132 Y114.243 E18.12388
G1 X176.644 Y114.243 E18.14887
G1 X176.644 Y100.407 E18.85742
G1 X176.155 Y100.407 E18.88246
G1 X176.155 Y114.441 E19.60115
G1 E17.60115 F2400
G92 E0
G1 Z2.28 F15000
G1 X187.397 Y94.092
G1 Z.28
G1 E2 F2400
G1 F3600
G1 X187.397 Y71.336 E3.16534
G1 X186.908 Y71.336 E3.19038
G1 X186.908 Y93.894 E4.34558
G1 X186.419 Y93.894 E4.37062
G1 X186.419 Y71.336 E5.52582
G1 X185.931 Y71.336 E5.55081
G1 X185.931 Y93.894 E6.70601
G1 X185.442 Y93.894 E6.73105
G1 X185.442 Y71.336 E7.88625
G1 X184.953 Y71.336 E7.91129
G1 X184.953 Y93.894 E9.06649
G1 X184.464 Y93.894 E9.09153
G1 X184.464 Y71.336 E10.24673
G1 X183.975 Y71.336 E10.27177
G1 X183.975 Y93.894 E11.42697
G1 X183.487 Y93.894 E11.45196
G1 X183.487 Y71.336 E12.60716
G1 X182.998 Y71.336 E12.6322
G1 X182.998 Y93.894 E13.7874
G1 X182.509 Y93.894 E13.81244
G1 X182.509 Y71.336 E14.96764
G1 X182.02 Y71.336 E14.99268
G1 X182.02 Y93.894 E16.14788
G1 X181.531 Y93.894 E16.17292
G1 X181.531 Y71.336 E17.32812
G1 X181.043 Y71.336 E17.35311
G1 X181.043 Y93.894 E18.50831
G1 X180.554 Y93.894 E18.53335
G1 X180.554 Y71.336 E19.68855
G1 X180.065 Y71.336 E19.71359
G1 X180.065 Y93.894 E20.86879
G1 X179.576 Y93.894 E20.89383
G1 X179.576 Y71.336 E22.04903
G1 X179.088 Y71.336 E22.07402
G1 X179.088 Y93.894 E23.22922
G1 X178.599 Y93.894 E23.25426
G1 X178.599 Y71.336 E24.40946
G1 X178.11 Y71.336 E24.4345
G1 X178.11 Y93.894 E25.5897
G1 X177.621 Y93.894 E25.61474
G1 X177.621 Y71.336 E26.76994
G1 X177.132 Y71.336 E26.79498
G1 X177.132 Y93.894 E27.95018
G1 X176.644 Y93.894 E27.97517
M73 P1 R82
G1 X176.644 Y71.336 E29.13037
G1 X176.155 Y71.336 E29.15541
G1 X176.155 Y93.894 E30.31061
G1 X175.991 Y93.894 E30.31901
G1 X175.991 Y79.358 E31.0634
G1 X175.666 Y79.358 E31.08004
G1 X175.666 Y71.336 E31.49085
G1 X175.177 Y71.336 E31.51589
G1 X175.177 Y79.358 E31.9267
G1 X174.688 Y79.358 E31.95174
G1 X174.688 Y71.336 E32.36255
G1 X174.2 Y71.336 E32.38754
G1 X174.2 Y79.358 E32.79835
G1 X173.711 Y79.358 E32.82339
G1 X173.711 Y71.336 E33.2342
G1 X173.222 Y71.336 E33.25924
G1 X173.222 Y79.358 E33.67005
G1 X172.733 Y79.358 E33.69509
G1 X172.733 Y71.336 E34.1059
G1 X172.244 Y71.336 E34.13094
G1 X172.244 Y79.358 E34.54175
G1 X171.756 Y79.358 E34.56674
G1 X171.756 Y71.336 E34.97755
G1 X171.267 Y71.336 E35.00259
G1 X171.267 Y79.358 E35.4134
G1 X170.778 Y79.358 E35.43844
G1 X170.778 Y71.336 E35.84925
G1 X170.289 Y71.336 E35.87429
G1 X170.289 Y79.358 E36.2851
G1 X169.801 Y79.358 E36.31009
G1 X169.801 Y71.336 E36.7209
G1 X169.312 Y71.336 E36.74594
G1 X169.312 Y79.358 E37.15675
G1 X168.823 Y79.358 E37.18179
G1 X168.823 Y71.336 E37.5926
G1 X168.334 Y71.336 E37.61764
G1 X168.334 Y79.358 E38.02845
G1 X167.845 Y79.358 E38.05349
G1 X167.845 Y71.336 E38.4643
G1 X167.357 Y71.336 E38.48929
G1 X167.357 Y79.358 E38.9001
G1 X166.868 Y79.358 E38.92514
G1 X166.868 Y71.336 E39.33595
G1 X166.379 Y71.336 E39.36099
G1 X166.379 Y79.358 E39.7718
G1 X165.89 Y79.358 E39.79684
G1 X165.89 Y71.336 E40.20765
G1 X165.401 Y71.336 E40.23269
G1 X165.401 Y79.358 E40.6435
G1 X164.913 Y79.358 E40.66849
G1 X164.913 Y71.336 E41.0793
G1 X164.424 Y71.336 E41.10434
G1 X164.424 Y79.358 E41.51515
G1 X163.935 Y79.358 E41.54019
G1 X163.935 Y71.336 E41.951
G1 X163.446 Y71.336 E41.97604
G1 X163.446 Y79.358 E42.38685
G1 X162.957 Y79.358 E42.41189
G1 X162.957 Y71.336 E42.8227
G1 X162.469 Y71.336 E42.84769
G1 X162.469 Y79.358 E43.2585
G1 X161.98 Y79.358 E43.28354
G1 X161.98 Y71.336 E43.69435
G1 X161.491 Y71.336 E43.71939
G1 X161.491 Y79.358 E44.1302
G1 X161.002 Y79.358 E44.15524
G1 X161.002 Y71.336 E44.56605
G1 X160.514 Y71.336 E44.59104
G1 X160.514 Y79.358 E45.00185
G1 X160.025 Y79.358 E45.02689
G1 X160.025 Y71.336 E45.4377
G1 X159.536 Y71.336 E45.46274
G1 X159.536 Y79.358 E45.87355
G1 X159.047 Y79.358 E45.89859
G1 X159.047 Y71.336 E46.3094
G1 X158.558 Y71.336 E46.33444
G1 X158.558 Y79.358 E46.74525
G1 X158.07 Y79.358 E46.77024
G1 X158.07 Y71.336 E47.18105
G1 X157.581 Y71.336 E47.20609
G1 X157.581 Y79.358 E47.6169
G1 X157.092 Y79.358 E47.64194
G1 X157.092 Y71.336 E48.05275
G1 X156.603 Y71.336 E48.07779
G1 X156.603 Y79.358 E48.4886
G1 X156.114 Y79.358 E48.51364
G1 X156.114 Y71.336 E48.92445
G1 X155.626 Y71.336 E48.94944
G1 X155.626 Y79.358 E49.36025
G1 X155.137 Y79.358 E49.38529
G1 X155.137 Y71.336 E49.7961
G1 X154.648 Y71.336 E49.82114
G1 X154.648 Y79.358 E50.23195
G1 X154.159 Y79.358 E50.25699
G1 X154.159 Y71.336 E50.6678
G1 X153.67 Y71.336 E50.69284
G1 X153.67 Y79.358 E51.10365
G1 X153.182 Y79.358 E51.12864
G1 X153.182 Y71.336 E51.53945
G1 X152.693 Y71.336 E51.56449
G1 X152.693 Y79.358 E51.9753
G1 X152.204 Y79.358 E52.00034
G1 X152.204 Y71.336 E52.41115
G1 X151.715 Y71.336 E52.43619
G1 X151.715 Y79.358 E52.847
G1 X151.227 Y79.358 E52.87199
G1 X151.227 Y71.336 E53.2828
G1 X150.738 Y71.336 E53.30784
G1 X150.738 Y79.358 E53.71865
G1 X150.249 Y79.358 E53.74369
G1 X150.249 Y71.336 E54.1545
G1 X149.76 Y71.336 E54.17954
G1 X149.76 Y79.358 E54.59035
G1 X149.271 Y79.358 E54.61539
G1 X149.271 Y71.336 E55.0262
G1 X148.783 Y71.336 E55.05119
G1 X148.783 Y79.358 E55.462
G1 X148.294 Y79.358 E55.48704
G1 X148.294 Y71.336 E55.89785
G1 X147.805 Y71.336 E55.92289
G1 X147.805 Y79.358 E56.3337
G1 X147.646 Y79.358 E56.34184
G1 X147.646 Y74.139 E56.60911
G1 X147.316 Y73.81 E56.63297
G1 X147.316 Y71.336 E56.75966
G1 X146.827 Y71.336 E56.7847
G1 X146.827 Y73.629 E56.90213
G1 X146.339 Y73.629 E56.92712
G1 X146.339 Y71.336 E57.04455
G1 X145.85 Y71.336 E57.06959
G1 X145.85 Y73.629 E57.18702
